X:1
T:Menuett ur Sven Donats notbok
T:(Ma5-1)
R:Menuett
O:Småland
S:Efter Sven Donat
N:MA5, låt 1, sida 3
B:Sven Donats notbok
N:Se SMUS Ma5
Z:Jonas Brunskog
Q:1/4=130
M:3/4
L:1/8
K:D
|:A2 de f2|D2 D2 D2|f2 df a2|D2 D2 D2|f2 df a2|e2 ce a2|d2 c2 B2|A4 z2:|
|:A2 FA d2|B2 DCB,A,|G,2 B2 d2|c2 EDCB,|A,2 e2g2|D2 fg a2|G2 F2 [EA,]2|D4 z2:|

